places/16/folder-videos.svg

<?xml version="1.0" encoding="UTF-8"?>
<!-- Created with Inkscape (http://www.inkscape.org/) -->
<svg width="16" height="16" version="1.1" xmlns="http://www.w3.org/2000/svg" xmlns:cc="http://creativecommons.org/ns#" xmlns:dc="http://purl.org/dc/elements/1.1/" xmlns:rdf="http://www.w3.org/1999/02/22-rdf-syntax-ns#">
	<defs>
		<radialGradient id="c" cx="-3371" cy="1867.5" r="4.2518" gradientTransform="matrix(3.6005,0,0,3.0891,12145,-5755.3)" gradientUnits="userSpaceOnUse">
			<stop stop-color="#213851" stop-opacity=".9059" offset="0"/>
			<stop stop-color="#27303a" stop-opacity="0" offset="1"/>
		</radialGradient>
		<radialGradient id="a" cx="-5.1561" cy="7.1889" r="7.1556" gradientTransform="matrix(2.3758,0,0,2.6522,15.25,-17.066)" gradientUnits="userSpaceOnUse">
			<stop stop-color="#ffffff" stop-opacity=".74858" offset="0"/>
			<stop stop-color="#ffffff" stop-opacity=".60511" offset="1"/>
		</radialGradient>
	</defs>
	<metadata>
		<rdf:RDF>
			<cc:Work rdf:about="">
				<dc:format>image/svg+xml</dc:format>
				<dc:type rdf:resource="http://purl.org/dc/dcmitype/StillImage"/>
				<dc:title/>
			</cc:Work>
		</rdf:RDF>
	</metadata>
	<path d="m2 1c-1.0907 0-2 0.9093-2 2v10c0 1.0907 0.9093 2 2 2h12c1.0907 0 2-0.9093 2-2v-10c0-1.0907-0.9093-2-2-2zm0 1h12c0.554 0 1 0.446 1 1v10c0 0.554-0.446 1-1 1h-12c-0.554 0-1-0.446-1-1v-10c0-0.554 0.446-1 1-1zm1 2v1h2v-1zm4 0v1h2v-1zm4 0v1h2v-1zm-8 7v1h2v-1zm4 0v1h2v-1zm4 0v1h2v-1z" color="#000000" color-rendering="auto" dominant-baseline="auto" fill="url(#a)" image-rendering="auto" shape-rendering="auto" solid-color="#000000" style="font-feature-settings:normal;font-variant-alternates:normal;font-variant-caps:normal;font-variant-ligatures:normal;font-variant-numeric:normal;font-variant-position:normal;isolation:auto;mix-blend-mode:normal;paint-order:normal;shape-padding:0;text-decoration-color:#000000;text-decoration-line:none;text-decoration-style:solid;text-indent:0;text-orientation:mixed;text-transform:none;white-space:normal"/>
	<path d="m2 2c-0.554 0-1 0.446-1 1v10c0 0.554 0.446 1 1 1h12c0.554 0 1-0.446 1-1v-10c0-0.554-0.446-1-1-1zm1 2h2v1h-2zm4 0h2v1h-2zm4 0h2v1h-2zm-8 7h2v1h-2zm4 0h2v1h-2zm4 0h2v1h-2z" fill="#090d11" fill-opacity=".76621" style="paint-order:normal"/>
	<path d="m2 2c-0.554 0-1 0.446-1 1v10c0 0.554 0.446 1 1 1h12c0.554 0 1-0.446 1-1v-10c0-0.554-0.446-1-1-1zm1 2h2v1h-2zm4 0h2v1h-2zm4 0h2v1h-2zm-8 7h2v1h-2zm4 0h2v1h-2zm4 0h2v1h-2z" fill="url(#c)" fill-opacity=".7533" style="paint-order:normal"/>
</svg>

<?xml version="1.0" encoding="UTF-8" standalone="no"?>
<!-- Created with Inkscape (http://www.inkscape.org/) -->

<svg
   xmlns:dc="http://purl.org/dc/elements/1.1/"
   xmlns:cc="http://creativecommons.org/ns#"
   xmlns:rdf="http://www.w3.org/1999/02/22-rdf-syntax-ns#"
   xmlns:svg="http://www.w3.org/2000/svg"
   xmlns="http://www.w3.org/2000/svg"
   xmlns:sodipodi="http://sodipodi.sourceforge.net/DTD/sodipodi-0.dtd"
   xmlns:inkscape="http://www.inkscape.org/namespaces/inkscape"
   id="svg13094"
   height="16"
   width="16"
   version="1.1"
   inkscape:version="0.92.2 5c3e80d, 2017-08-06"
   sodipodi:docname="kdenlive-add-clip.svg">
  <defs
     id="defs3016" />
  <sodipodi:namedview
     pagecolor="#ffffff"
     bordercolor="#666666"
     borderopacity="1"
     objecttolerance="10"
     gridtolerance="10"
     guidetolerance="10"
     inkscape:pageopacity="0"
     inkscape:pageshadow="2"
     inkscape:window-width="1920"
     inkscape:window-height="1032"
     id="namedview3014"
     showgrid="true"
     inkscape:zoom="29.5"
     inkscape:cx="17.855012"
     inkscape:cy="7.5409505"
     inkscape:window-x="-7"
     inkscape:window-y="25"
     inkscape:window-maximized="1"
     inkscape:current-layer="svg13094"
     inkscape:snap-bbox="true"
     inkscape:bbox-paths="true"
     inkscape:bbox-nodes="true"
     inkscape:snap-bbox-edge-midpoints="true"
     inkscape:snap-bbox-midpoints="true"
     inkscape:object-paths="true"
     inkscape:snap-intersection-paths="true"
     inkscape:object-nodes="true"
     inkscape:snap-smooth-nodes="true"
     inkscape:snap-midpoints="true"
     inkscape:snap-object-midpoints="true"
     inkscape:snap-center="true">
    <inkscape:grid
       type="xygrid"
       id="grid2982" />
  </sodipodi:namedview>
  <metadata
     id="metadata13099">
    <rdf:RDF>
      <cc:Work
         rdf:about="">
        <dc:format>image/svg+xml</dc:format>
        <dc:type
           rdf:resource="http://purl.org/dc/dcmitype/StillImage" />
        <dc:title />
      </cc:Work>
    </rdf:RDF>
  </metadata>
  <path
     style="color:#000000;font-style:normal;font-variant:normal;font-weight:normal;font-stretch:normal;font-size:medium;line-height:normal;font-family:sans-serif;font-variant-ligatures:normal;font-variant-position:normal;font-variant-caps:normal;font-variant-numeric:normal;font-variant-alternates:normal;font-feature-settings:normal;text-indent:0;text-align:start;text-decoration:none;text-decoration-line:none;text-decoration-style:solid;text-decoration-color:#000000;letter-spacing:normal;word-spacing:normal;text-transform:none;writing-mode:lr-tb;direction:ltr;text-orientation:mixed;dominant-baseline:auto;baseline-shift:baseline;text-anchor:start;white-space:normal;shape-padding:0;clip-rule:nonzero;display:inline;overflow:visible;visibility:visible;opacity:1;isolation:auto;mix-blend-mode:normal;color-interpolation:sRGB;color-interpolation-filters:linearRGB;solid-color:#000000;solid-opacity:1;vector-effect:none;fill:#f1f3f5;fill-opacity:0.90288714;fill-rule:nonzero;stroke:none;stroke-width:2;stroke-linecap:butt;stroke-linejoin:miter;stroke-miterlimit:4;stroke-dasharray:none;stroke-dashoffset:0;stroke-opacity:1;marker:none;paint-order:normal;color-rendering:auto;image-rendering:auto;shape-rendering:auto;text-rendering:auto;enable-background:accumulate;font-variant-east_asian:normal"
     d="M 2 1 C 0.90929723 1 0 1.9092972 0 3 L 0 13 C 0 14.090703 0.90929723 15 2 15 L 14 15 C 15.090703 15 16 14.090703 16 13 L 16 3 C 16 1.9092972 15.090703 1 14 1 L 2 1 z M 2 2 L 14 2 C 14.554 2 15 2.446 15 3 L 15 13 C 15 13.554 14.554 14 14 14 L 2 14 C 1.446 14 1 13.554 1 13 L 1 3 C 1 2.446 1.446 2 2 2 z M 3 3 L 3 5 L 5 5 L 5 3 L 3 3 z M 7 3 L 7 5 L 9 5 L 9 3 L 7 3 z M 11 3 L 11 5 L 13 5 L 13 3 L 11 3 z M 3 11 L 3 13 L 5 13 L 5 11 L 3 11 z M 7 11 L 7 13 L 9 13 L 9 11 L 7 11 z M 11 11 L 11 13 L 13 13 L 13 11 L 11 11 z "
     id="rect814" />
  <path
     inkscape:connector-curvature="0"
     style="opacity:1;vector-effect:none;fill:#27303a;fill-opacity:0.75328082;fill-rule:nonzero;stroke:none;stroke-width:1;stroke-linecap:butt;stroke-linejoin:miter;stroke-miterlimit:4;stroke-dasharray:none;stroke-dashoffset:0;stroke-opacity:1;marker:none;paint-order:normal"
     d="M 2,2 C 1.446,2 1,2.446 1,3 v 10 c 0,0.554 0.446,1 1,1 h 12 c 0.554,0 1,-0.446 1,-1 V 3 C 15,2.446 14.554,2 14,2 Z M 3,3 H 5 V 5 H 3 Z M 7,3 H 9 V 5 H 7 Z m 4,0 h 2 v 2 h -2 z m -8,8 h 2 v 2 H 3 Z m 4,0 h 2 v 2 H 7 Z m 4,0 h 2 v 2 h -2 z"
     id="path854" />
</svg>
